public/flags/PG.svg

<svg fill="none" height="53" viewBox="0 0 61 53" width="61" xmlns="http://www.w3.org/2000/svg" xmlns:xlink="http://www.w3.org/1999/xlink"><mask id="a" height="43" maskUnits="userSpaceOnUse" width="59" x="1" y="3"><rect fill="#fff" height="42.5" rx="4.24286" width="59" x="1" y="3"/></mask><rect fill="#fff" height="42.5" rx="4.24286" width="59" x="1" y="3"/><g mask="url(#a)"><path d="m1 3h59v42.5h-59z" fill="#262626"/><g clip-rule="evenodd" fill-rule="evenodd"><path d="m1 3h59v42.5z" fill="#e8283f"/><path d="m15.0473 38.4166-1.9866.5868.5819-2.0034-.5819-2.0035 1.9866.5868 1.9867-.5868-.5819 2.0035.5819 2.0034z" fill="#fff"/><path d="m15.0473 21.4167-1.9866.5868.5819-2.0035-.5819-2.0034 1.9866.5868 1.9867-.5868-.5819 2.0034.5819 2.0035z" fill="#fff"/><path d="m8.02388 28.5-1.98663.5868.58187-2.0035-.58187-2.0034 1.98663.5868 1.98662-.5868-.58186 2.0034.58186 2.0035z" fill="#fff"/><path d="m20.6669 27.0834-1.9866.5868.5819-2.0035-.5819-2.0035 1.9866.5868 1.9867-.5868-.5819 2.0035.5819 2.0035z" fill="#fff"/><path d="m40.7435 22.6893c-.3364-.2035-.609-.6829-.609-1.0665v-2.611c0-.3855-.275-.6055-.6912-.4656l-1.5976.5371c-.3817.1283-.9662.1398-1.3823 0l-1.5977-.5371c-.3817-.1283-.4241-.3939-.0821-.6008l3.7486-2.2682c.3363-.2036.5173-.6459.3786-1.0656l-.5326-1.6111c-.1272-.385.0447-.6046.4608-.4647l1.5976.5371c.3818.1283.8514-.037 1.0566-.3819l2.2491-3.78032c.2019-.3392.4571-.33683.5958.08284l.5326 1.61118c.1272.385.1387.9744 0 1.394l-.5326 1.6112c-.1272.385.0814.697.4617.697h2.5891c.3823 0 .8523.2693 1.0575.6142l2.2492 3.7803c.2018.3392.0395.6799-.3252.7535l-3.5854.7231c-.3814.077-.7558.468-.8287.8358l-.7171 3.6158c-.0763.3846-.4052.5348-.7471.3279z" fill="#ffd84e"/></g></g></svg>

<svg width="61" height="53" viewBox="0 0 61 53" fill="none" xmlns="http://www.w3.org/2000/svg">
<rect x="1" y="3" width="59" height="42.5" rx="4.24286" fill="white"/>
<mask id="mask0" mask-type="alpha" maskUnits="userSpaceOnUse" x="1" y="3" width="59" height="43">
<rect x="1" y="3" width="59" height="42.5" rx="4.24286" fill="white"/>
</mask>
<g mask="url(#mask0)">
<rect x="1" y="3" width="59" height="42.5" fill="#262626"/>
<path fill-rule="evenodd" clip-rule="evenodd" d="M1 3H60V45.5L1 3Z" fill="#E8283F"/>
<path fill-rule="evenodd" clip-rule="evenodd" d="M15.0473 38.4166L13.0607 39.0034L13.6426 37L13.0607 34.9965L15.0473 35.5833L17.034 34.9965L16.4521 37L17.034 39.0034L15.0473 38.4166Z" fill="white"/>
<path fill-rule="evenodd" clip-rule="evenodd" d="M15.0473 21.4167L13.0607 22.0035L13.6426 20L13.0607 17.9966L15.0473 18.5834L17.034 17.9966L16.4521 20L17.034 22.0035L15.0473 21.4167Z" fill="white"/>
<path fill-rule="evenodd" clip-rule="evenodd" d="M8.02388 28.5L6.03725 29.0868L6.61912 27.0833L6.03725 25.0799L8.02388 25.6667L10.0105 25.0799L9.42864 27.0833L10.0105 29.0868L8.02388 28.5Z" fill="white"/>
<path fill-rule="evenodd" clip-rule="evenodd" d="M20.6669 27.0834L18.6803 27.6702L19.2622 25.6667L18.6803 23.6632L20.6669 24.25L22.6536 23.6632L22.0717 25.6667L22.6536 27.6702L20.6669 27.0834Z" fill="white"/>
<path fill-rule="evenodd" clip-rule="evenodd" d="M40.7435 22.6893C40.4071 22.4858 40.1345 22.0064 40.1345 21.6228L40.1345 19.0118C40.1345 18.6263 39.8595 18.4063 39.4433 18.5462L37.8457 19.0833C37.464 19.2116 36.8795 19.2231 36.4634 19.0833L34.8657 18.5462C34.484 18.4179 34.4416 18.1523 34.7836 17.9454L38.5322 15.6772C38.8685 15.4736 39.0495 15.0313 38.9108 14.6116L38.3782 13.0005C38.251 12.6155 38.4229 12.3959 38.839 12.5358L40.4366 13.0729C40.8184 13.2012 41.288 13.0359 41.4932 12.691L43.7423 8.91068C43.9442 8.57148 44.1994 8.57385 44.3381 8.99352L44.8707 10.6047C44.9979 10.9897 45.0094 11.5791 44.8707 11.9987L44.3381 13.6099C44.2109 13.9949 44.4195 14.3069 44.7998 14.3069H47.3889C47.7712 14.3069 48.2412 14.5762 48.4464 14.9211L50.6956 18.7014C50.8974 19.0406 50.7351 19.3813 50.3704 19.4549L46.785 20.178C46.4036 20.255 46.0292 20.646 45.9563 21.0138L45.2392 24.6296C45.1629 25.0142 44.834 25.1644 44.4921 24.9575L40.7435 22.6893V22.6893Z" fill="#FFD84E"/>
</g>
</svg>
